X:1
T: Colonel Baird
C:
R:Jig
Q:180
K:G
M:6/8
L:1/16
e2|d2g2e2 d2g2e2|d4d2 d4e2|d2B2G2 c2A2F2|G4G2 G4e2|d2g2e2 d2g2e2|d4d2 d4e2|d2B2G2 c2A2F2|G4G2 G4e2|
d2g2e2 d2g2e2|d4d2 d4e2|d2B2G2 c2A2F2|G4G2 G4e2|d2g2e2 d2g2e2|d4d2 d4e2|d2B2G2 c2A2F2|G4G2 G4c2|
d4d2 B2G2B2|c4c2 A2F2A2|G2A2B2 G2A2B2|c4B2 A4c2|d4d2 B2G2B2|c4c2 A2F2A2|G2A2B2 c2A2F2|G6 G4B2|
d4d2 B2G2B2|c4c2 A2F2A2|G2A2B2 G2A2B2|c4B2 A4c2|d4d2 B2G2B2|c4c2 A2F2A2|G2A2B2 c2A2F2|G6 G4||
